X: 1
T: Grannas Britta (Neighbor Britta)
R: sl\"angpolska
C: sl\"angpolska efter Pelle Fors
O: Vikbolandet, \"Osterg\"otland, Sweden
R: sl\"ang-polska
S: Fiddle Hell Online 2021-5-16
Z: 2021 John Chambers <jc:trillian.mit.edu>
M: 3/4
L: 1/8
K: G
[|\
vB>B B(uc/B/ A)(vA | B)B A2 G2 | vB>(uB c)(c B)B | vdB A2 uG2 |
vB>B B(uc/B/ A)(vA | B)B B(uc/B/ A)(vA | B)>(uB c)(c B)B | vdB A2 uG2 |
|:\
vG>G BG BG | B>(uB d)(B d)B | vdd/d/ g2 d2 | uBc/B/ A2 uG2 :|
